images_breeze_svg/cmd/32/pickthrough.svg

<svg viewBox="0 0 32 32" xmlns="http://www.w3.org/2000/svg"><path d="m13.310547 4-5.6210939 15h2.0136719.607422.568359l2-2h-2.417968l3.849609-10.5976562 2.441406 6.7246092 1.439453-1.439453-2.880859-7.6875h-1zm13.982422 0-23.292969 23.292969.7070312.707031 23.2929688-23.2929688zm-7.945313 10.773438-1.464844 1.464843.277344.761719h-1.039062l-2 2h3.796875l3.392578 9h2l-.070313-.175781z" fill="#4d4d4d"/></svg>

<?xml version="1.0" encoding="UTF-8" standalone="no"?>
<svg
   xmlns:dc="http://purl.org/dc/elements/1.1/"
   xmlns:cc="http://creativecommons.org/ns#"
   xmlns:rdf="http://www.w3.org/1999/02/22-rdf-syntax-ns#"
   xmlns:svg="http://www.w3.org/2000/svg"
   xmlns="http://www.w3.org/2000/svg"
   xmlns:sodipodi="http://sodipodi.sourceforge.net/DTD/sodipodi-0.dtd"
   xmlns:inkscape="http://www.inkscape.org/namespaces/inkscape"
   viewBox="0 0 32 32"
   version="1.1"
   id="svg6"
   sodipodi:docname="pickthrough.svg"
   inkscape:version="0.92.4 (unknown)"
   inkscape:export-filename="/home/rizmut/Dokumen/Rizmut/Github/tmp/breeze/cmd/32/pickthrough.png"
   inkscape:export-xdpi="96"
   inkscape:export-ydpi="96">
  <metadata
     id="metadata12">
    <rdf:RDF>
      <cc:Work
         rdf:about="">
        <dc:format>image/svg+xml</dc:format>
        <dc:type
           rdf:resource="http://purl.org/dc/dcmitype/StillImage" />
        <dc:title></dc:title>
      </cc:Work>
    </rdf:RDF>
  </metadata>
  <defs
     id="defs10" />
  <sodipodi:namedview
     pagecolor="#ffffff"
     bordercolor="#666666"
     borderopacity="1"
     objecttolerance="10"
     gridtolerance="10"
     guidetolerance="10"
     inkscape:pageopacity="0"
     inkscape:pageshadow="2"
     inkscape:window-width="1360"
     inkscape:window-height="714"
     id="namedview8"
     showgrid="true"
     inkscape:zoom="5.2149125"
     inkscape:cx="-25.198647"
     inkscape:cy="34.23504"
     inkscape:window-x="0"
     inkscape:window-y="28"
     inkscape:window-maximized="1"
     inkscape:current-layer="svg6">
    <inkscape:grid
       type="xygrid"
       id="grid822" />
  </sodipodi:namedview>
  <path
     style="fill:#4d4d4d;stroke:none"
     d="M 13.310547 4 L 7.6894531 19 L 9.703125 19 L 10.310547 19 L 10.878906 19 L 12.878906 17 L 10.460938 17 L 14.310547 6.4023438 L 16.751953 13.126953 L 18.191406 11.6875 L 15.310547 4 L 14.310547 4 L 13.310547 4 z M 27.292969 4 L 4 27.292969 L 4.7070312 28 L 28 4.7070312 L 27.292969 4 z M 19.347656 14.773438 L 17.882812 16.238281 L 18.160156 17 L 17.121094 17 L 15.121094 19 L 18.917969 19 L 22.310547 28 L 24.310547 28 L 24.240234 27.824219 L 19.347656 14.773438 z "
     id="path2" />
</svg>
